X: 41117
T: Trip To Sligo, The
R: jig
M: 6/8
K: Eminor
D|E2e BGE|D2d AFD|E2e BGE|GFE EFD|
E2e BGE|D2d AFD|E2e BGE|EFG ABc|
BGF E2D|E2e BGE|D2d AFD|E2e BGE|
GFE e2f|gfe dcB|ABG FED|[M:9/8] e2f gfe dcB|
M:6/8
ABG FED|EFG ABc|BGF E2:|
|:e|eBe gfe|dAd fed|eBe gfe|f/g/af gfe|
f/g/af gfe|dcB AFD|EFG ABc|BGF E2:|

